X:1
T: Saint Patrick's Day Strathspey
C:Bruce Shawyer
R:Strathspey
Q:128
K:G
M:4/4
L:1/16
|:D2|G3A G3B d3e dB3|F3A A3c F3A A3c|G3A G3B d3e dB3|F3A B3G E3F G2D2|
G3A G3B d3e dB3|F3A A3c F3A A3c|G3A G3B d3e dB3|F3A B3G E3F G2D2|
d3e g3e f3d e3c|d3e gg3 f3d e3g|G3A G3B d3e dB3|A3G B3G D3F G2D2|
d3e g3e f3d e3c|d3e gg3 f3d e3g|G3A G3B d3e dB3|A3G B3G D3F G2:|
